!!!COM: Corelli, Arcangelo
!!!OPR: Church Sonata in D Major
!!!ONM: Opus 5, No. 1
!!!OTL: Allegro 
!!!OMV: 2
!!!YOR:
!!!EED: Frances Bennion
!!!ENC: Frances Bennion
!!!CDT: 1653/2/17/-1713/1/8/
!!!OCY: Italia
!!!YEC: Copyright (c) 1994, 2000 Center for Computer Assisted Research in the Humanities
!!!YEM: Rights to all derivative editions reserved.
!!!YEM: Refer to licensing agreement for further details.
!!!YEN: United States of America
**kern	**kern
*k[f#c#]	*k[f#c#]
*D:	*D:
*clefG	*clefC
*M4/4	*M4/4
*tb16	*tb16
=1	=1
16dd	4D
16d	.
16f#	.
16a	.
16dd	4d
16ff#	.
16aa	.
16ff#	.
16ee	4c#
16aa	.
16cc#	.
16ee	.
16a	4C#
16cc#	.
16ee	.
16a	.
=2	=2
16dd	4BB
16ff#	.
16b	.
16dd	.
16g#	4E
16b	.
16ee	.
16b	.
16cc#	4A
16a	.
16cc#	.
16ee	.
16aa	4AA
16ee	.
16cc#	.
16a	.
=3	=3
16dd	4F#
16d	.
16f#	.
16a	.
16dd	4D
16ff#	.
16dd	.
16a	.
16b	4G
16g	.
16b	.
16dd	.
16gg	4GG
16bb	.
16b	.
16dd	.
=4	=4
16cc#	4AA
16a	.
16dd	.
16f#	.
16e	4A
16dd	.
16cc#	.
16e	.
16d	4D
16dd	.
16ff#	.
16aa	.
16ddd	4d
16aa	.
16ff#	.
16dd	.
=5	=5
16ee	4c#
16a	.
16cc#	.
16ee	.
16aa	4C#
16ee	.
16cc#	.
16a	.
16dd	4BB
16d	.
16f#	.
16a	.
16dd	4E
16b	.
16g#	.
16b	.
=6	=6
16cc#	4A
16ee	.
16dd	.
16ee	.
16cc#	4AA
16ee	.
16dd	.
16ee	.
16b	4GG#
16ee	.
16dd	.
16ee	.
16b	4G#
16ee	.
16dd	.
16ee	.
=7	=7
16a	4F#
16aa	.
16gg#	.
16aa	.
16ee	4C#
16aa	.
16gg#	.
16aa	.
16ff#	4D
16aa	.
16gg#	.
16aa	.
16b	4E
16aa	.
16gg#	.
16aa	.
=8	=8
16a	4AA
16A	.
16c#	.
16e	.
16a	4A
16cc#	.
16b	.
16a	.
16b	4G#
16e	.
16g#	.
16b	.
16ee	4GG#
16gg#	.
16ff#	.
16ee	.
=9	=9
16aa	4FF#
16a	.
16cc#	.
16ee	.
16aa	4F#
16ccc#	.
16bb	.
16aa	.
16eee	4E
16ee	.
16gg#	.
16ff#	.
16ee	4e
16gg#	.
16ff#	.
16ee	.
=10	=10
16ff#	4d#
16bb	.
16aa	.
16bb	.
16ff#	4D#
16bb	.
16aa	.
16bb	.
16ee	4C#
16aa	.
16gg#	.
16aa	.
16ee	4c#
16aa	.
16gg#	.
16aa	.
=11	=11
16dd#	4B
16b	.
16cc#	.
16dd#	.
16ee	4G#
16b	.
16ee	.
16b	.
16cc#	4A
16dd#	.
16ee	.
16g#	.
16f#	4B
16ee	.
16dd#	.
16f#	.
=12	=12
16e	4E
16ee	.
16dd#	.
16ee	.
16b	4r
16ee	.
16dd#	.
16ee	.
16g#	4E
16ee	.
16dd#	.
16ee	.
16e	4G#
16ee	.
16dd#	.
16ee	.
=13	=13
16cc#	4A
16aa	.
16gg#	.
16aa	.
16ee	4r
16aa	.
16gg#	.
16aa	.
16cc#	4AA
16aa	.
16gg#	.
16aa	.
16a	4C#
16aa	.
16gg#	.
16aa	.
=14	=14
16ff#	4D
16dd	.
16cc#	.
16dd	.
16a	4r
16dd	.
16cc#	.
16dd	.
16f#	4D
16dd	.
16cc#	.
16dd	.
16d	4F#
16dd	.
16cc#	.
16dd	.
=15	=15
16b	4G
16ee	.
16dd	.
16ee	.
16b	4r
16ee	.
16dd	.
16ee	.
16g#	4E
16ee	.
16dd	.
16ee	.
16e	4G#
16ee	.
16dd	.
16ee	.
=16	=16
16cc#	4A
16ff#	.
16ee	.
16ff#	.
16cc#	4r
16ff#	.
16ee	.
16ff#	.
16a#	4F#
16ff#	.
16ee	.
16ff#	.
16f#	4A#
16ff#	.
16ee	.
16ff#	.
=17	=17
16dd	4B
16gg	.
16ff#	.
16gg	.
16dd	4BB
16gg	.
16ff#	.
16gg	.
16cc#	4AA
16ff#	.
16ee	.
16ff#	.
16cc#	4A
16ff#	.
16ee	.
16ff#	.
=18	=18
16b	4G
16bb	.
16aa#	.
16bb	.
16ee	4GG
16gg	.
16ff#	.
16gg	.
16a#	4FF#
16ff#	.
16ee	.
16ff#	.
16b	4D
16bb	.
16aa#	.
16bb	.
=19	=19
16gg#	4E
16bb	.
16aa#	.
16bb	.
16cc#	4F#
16bb	.
16aa#	.
16bb	.
16b	4BB
16f#	.
16e	.
16f#	.
16c#	4r
16f#	.
16e	.
16f#	.
=20	=20
16d#	4B
16b	.
16a	.
16b	.
16f#	4D#
16b	.
16a	.
16b	.
16g#	4E
16ee	.
16dd	.
16ee	.
16b	4r
16ee	.
16dd	.
16ee	.
=21	=21
16cc#	4A
16aa	.
16gg	.
16aa	.
16ee	4C#
16aa	.
16gg	.
16aa	.
16ff#	4D
16ddd	.
16ccc#	.
16ddd	.
16aa	4r
16ddd	.
16ccc#	.
16ddd	.
=22	=22
16bb	4GG
16ccc#	.
16ddd	.
16ff#	.
16ee	4AA
16ddd	.
16ccc#	.
16ee	.
16ff#	4D
16aa	.
16ddd	.
16aa	.
16dd	4d
16ff#	.
16bb	.
16ff#	.
=23	=23
16ee	4c#
16aa	.
16ccc#	.
16aa	.
16ee	4C#
16aa	.
16ccc#	.
16aa	.
16dd	4BB
16gg	.
16ff#	.
16gg	.
16dd	4B
16gg	.
16ff#	.
16gg	.
=24	=24
16cc#	4A
16ff#	.
16ee	.
16ff#	.
16cc#	4AA
16ff#	.
16ee	.
16ff#	.
16b	4GG
16ee	.
16dd	.
16ee	.
16b	4G
16ee	.
16dd	.
16ee	.
=25	=25
16a	4F#
16dd	.
16cc#	.
16dd	.
16a	4FF#
16dd	.
16cc#	.
16dd	.
16b	4GG
16cc#	.
16dd	.
16f#	.
16e	4AA
16dd	.
16cc#	.
16e	.
=26	=26
16f#	4D
16a	.
16dd	.
16a	.
16f#	4d
16a	.
16dd	.
16a	.
16e	4c#
16a	.
16cc#	.
16a	.
16e	4C#
16a	.
16cc#	.
16a	.
=27	=27
16d	4BB
16g	.
16f#	.
16g	.
16d	4B
16g	.
16f#	.
16g	.
16c#	4A
16f#	.
16e	.
16f#	.
16c#	4AA
16f#	.
16e	.
16f#	.
=28	=28
16B	4GG
16e	.
16d	.
16e	.
16B	4G
16e	.
16d	.
16e	.
16A	4F#
16dd	.
16cc#	.
16dd	.
16a	4FF#
16dd	.
16cc#	.
16dd	.
=29	=29
16b	4GG
16dd	.
16cc#	.
16dd	.
16e	4AA
16dd	.
16cc#	.
16dd	.
16d	4D
16dd	.
16cc#	.
16dd	.
16a	4FF#
16dd	.
16cc#	.
16dd	.
=30	=30
16b	4GG
16dd	.
16cc#	.
16dd	.
16e	4AA
16dd	.
16cc#	.
16dd	.
2d	2D
==	==
*-	*-
!!!RWG1: This file contains only pitch and duration data.
!!!RWG2: Transposing instruments are not transposed.
!!!RWG3: Spines may have incompatible meters.
!!!RWG4: Durations of rests and tied notes may be interpreted.
!!!RWG: Key is interpreted using the Humdrum key tool.
!!!AFT: stage1
!!!END: 1997/04/15
!!format changes:
!!content changes:
!!public access: complete
!!!KEY: 1046896016
!!!EMD: Converted from MuseData to Humdrum Dec 16, 2000, by Andreas Kornstaedt using muse2kern.
